src/assets/images/letters.svg

<svg xmlns="http://www.w3.org/2000/svg" xmlns:xlink="http://www.w3.org/1999/xlink" width="767" height="182" fill="none" xmlns:v="https://vecta.io/nano"><path d="M.734 98.05V.95l61.45 58.166L122.697.95v97.1H94.082V59.117l-31.898 30.02-33.774-30.02V98.05H.734z" fill="url(#A)"/><path d="M256.72 1.66H155.396v96.4H256.72V76.995h-73.362V60.217h61.518V38.834h-61.518V21.727h73.362V1.66z" fill="url(#B)"/><path d="M295.54 98.05V.673h65.784s14.145.7 21.12 5.63c8.653 6.106 13.746 13.996 13.282 23.643-.807 16.755-17.8 23.112-17.8 23.112l29.09 44.99h-29.09L343.26 44.956h12.884s13.07 2.247 12.353-12.618c-.56-11.615-12.353-10.6-12.353-10.6h-33.298V98.05H295.54z" fill="url(#C)"/><path d="M464.197 98.05h-30.215L498.727.932l64.745 97.117h-30.215l-34.53-49.638-34.53 49.638z" fill="url(#D)"/><path d="M617.427 98.05H589.37V3.1h28.056v43.163L664.906 3.1h34.53l-47.48 47.48 47.48 47.48h-34.53l-47.48-47.48v47.48z" fill="url(#E)"/><path d="M766.34 98.05h-28.056V.932h28.056V98.05z" fill="url(#F)"/><path d="M303.736 139.613a4.29 4.29 0 0 1-1.686-.337 4.91 4.91 0 0 1-1.37-.927c-.394-.394-.703-.85-.928-1.37-.225-.534-.337-1.096-.337-1.686v-8.64a4.14 4.14 0 0 1 .337-1.665c.225-.534.534-.99.928-1.37a4.36 4.36 0 0 1 1.37-.928c.533-.24 1.095-.358 1.686-.358h14.668a3.94 3.94 0 0 1 1.665.358 4.3 4.3 0 0 1 1.391.928c.394.38.703.836.928 1.37.224.52.337 1.074.337 1.665v3.9h-4.32v-3.9h-14.668v8.64h14.668c.6 0 1.145.112 1.665.337.534.225.998.534 1.39.927a4.31 4.31 0 0 1 .928 1.391c.224.52.337 1.075.337 1.665v8.62c0 .6-.113 1.152-.337 1.686a4.36 4.36 0 0 1-.928 1.37 4.28 4.28 0 0 1-1.391.927c-.52.225-1.075.338-1.665.338h-15.1a4.3 4.3 0 0 1-1.686-.338c-.52-.224-.977-.533-1.37-.927s-.702-.85-.927-1.37c-.225-.534-.337-1.096-.337-1.686v-3.878h4.32v3.878h15.1v-8.62h-14.668zm78.587 8.62c0 .6-.113 1.152-.337 1.686a4.36 4.36 0 0 1-.928 1.37 4.28 4.28 0 0 1-1.391.927c-.52.225-1.075.338-1.665.338h-17.26a4.3 4.3 0 0 1-1.686-.338c-.52-.224-.976-.533-1.37-.927s-.702-.85-.927-1.37c-.225-.534-.337-1.096-.337-1.686v-21.58a4.14 4.14 0 0 1 .337-1.665c.225-.534.534-.99.927-1.37.394-.394.85-.703 1.37-.928a4.08 4.08 0 0 1 1.686-.358h17.26a3.94 3.94 0 0 1 1.665.358 4.3 4.3 0 0 1 1.391.928c.394.38.703.836.928 1.37.224.52.337 1.074.337 1.665v21.58zm-21.582-21.58v21.58h17.26v-21.58h-17.26zm59.577-4.32v25.902h15.533v4.32h-19.853V122.33h4.32zm46.615 0h4.32v25.902h17.26V122.33h4.32v25.902c0 .6-.112 1.152-.337 1.686-.225.52-.534.977-.927 1.37a4.29 4.29 0 0 1-1.391.927c-.52.225-1.075.338-1.665.338h-17.26a4.3 4.3 0 0 1-1.686-.338c-.52-.224-.977-.533-1.37-.927s-.703-.85-.927-1.37a4.3 4.3 0 0 1-.338-1.686V122.33zm56.985 0h24.174v4.32h-9.927v25.902h-4.32v-25.902h-9.927v-4.32zm59.577 0v30.223h-4.32V122.33h4.32zm59.577 25.902a4.3 4.3 0 0 1-.338 1.686 4.36 4.36 0 0 1-.927 1.37 4.28 4.28 0 0 1-1.391.927c-.52.225-1.075.338-1.665.338H621.5a4.3 4.3 0 0 1-1.686-.338c-.52-.224-.977-.533-1.37-.927s-.702-.85-.927-1.37a4.3 4.3 0 0 1-.338-1.686v-21.58a4.14 4.14 0 0 1 .338-1.665c.225-.534.534-.99.927-1.37a4.36 4.36 0 0 1 1.37-.928 4.08 4.08 0 0 1 1.686-.358h17.26a3.94 3.94 0 0 1 1.665.358 4.3 4.3 0 0 1 1.391.928c.393.38.703.836.927 1.37a4.14 4.14 0 0 1 .338 1.665v21.58zm-21.582-21.58v21.58h17.26v-21.58H621.5zm59.577 25.902h-4.32V122.33h4.32l18.167 23.436V122.33h4.32v30.223h-4.32l-18.167-23.437v23.437zm60.462-12.94c-.6 0-1.152-.112-1.686-.337a4.91 4.91 0 0 1-1.37-.927 4.37 4.37 0 0 1-.927-1.37 4.3 4.3 0 0 1-.338-1.686v-8.64a4.14 4.14 0 0 1 .338-1.665c.224-.534.534-.99.927-1.37a4.36 4.36 0 0 1 1.37-.928 4.08 4.08 0 0 1 1.686-.358h14.67a3.94 3.94 0 0 1 1.665.358 4.31 4.31 0 0 1 1.391.928c.393.38.702.836.927 1.37a4.14 4.14 0 0 1 .337 1.665v3.9h-4.32v-3.9h-14.67v8.64h14.67c.6 0 1.145.112 1.665.337.534.225.997.534 1.39.927s.702.857.927 1.39c.225.52.337 1.075.337 1.665v8.62c0 .6-.112 1.152-.337 1.686-.225.52-.534.977-.927 1.37a4.29 4.29 0 0 1-1.391.927c-.52.225-1.075.338-1.665.338h-15.09a4.3 4.3 0 0 1-1.686-.338c-.52-.224-.976-.533-1.37-.927s-.702-.85-.927-1.37c-.225-.534-.337-1.096-.337-1.686v-3.878h4.32v3.878h15.09v-8.62h-14.67z" fill="url(#G)"/><defs><linearGradient id="A" x1=".734" y1="49.5" x2="122.697" y2="49.5" xlink:href="#H"><stop stop-color="#b3812a"/><stop offset="1" stop-color="#cfab52"/></linearGradient><linearGradient id="B" x1="155.396" y1="49.854" x2="256.72" y2="49.854" xlink:href="#H"><stop stop-color="#d8ba60"/><stop offset="1" stop-color="#f0dd82"/></linearGradient><linearGradient id="C" x1="295.539" y1="49.361" x2="407.015" y2="49.361" xlink:href="#H"><stop stop-color="#f6e690"/><stop offset="1" stop-color="#fceea2"/></linearGradient><linearGradient id="D" x1="433.982" y1="49.49" x2="563.472" y2="49.49" xlink:href="#H"><stop stop-color="#f8e997"/><stop offset="1" stop-color="#e1c76c"/></linearGradient><linearGradient id="E" x1="589.371" y1="50.569" x2="699.437" y2="50.569" xlink:href="#H"><stop stop-color="#dabd63"/><stop offset="1" stop-color="#c39940"/></linearGradient><linearGradient id="F" x1="738.283" y1="49.49" x2="766.339" y2="49.49" xlink:href="#H"><stop stop-color="#b88932"/><stop offset="1" stop-color="#b3812a"/></linearGradient><linearGradient id="G" x1="295.537" y1="141.549" x2="766.335" y2="141.549" xlink:href="#H"><stop stop-color="#fff3ad"/><stop offset="1" stop-color="#f9eea9"/></linearGradient><linearGradient id="H" gradientUnits="userSpaceOnUse"/></defs></svg>

<svg width="767" height="182" viewBox="0 0 767 182" fill="none" xmlns="http://www.w3.org/2000/svg">
<path d="M0.734375 98.0504V0.950317L62.1847 59.1167L122.697 0.950317V98.0504H94.0824V59.1167L62.1847 89.138L28.4106 59.1167V98.0504H0.734375Z" fill="url(#paint0_linear)"/>
<path d="M256.72 1.65881H155.396V98.0488H256.72V76.9945H183.358V60.2169H244.876V38.8337H183.358V21.7272H256.72V1.65881Z" fill="url(#paint1_linear)"/>
<path d="M295.539 98.0488V0.672607H361.323C361.323 0.672607 375.468 1.3826 382.443 6.30363C391.096 12.4092 396.189 20.2995 395.725 29.9465C394.918 46.7012 377.926 53.0581 377.926 53.0581L407.015 98.0488H377.926L343.259 44.9557H356.143C356.143 44.9557 369.212 47.2026 368.496 32.3373C367.937 20.7226 356.143 21.7273 356.143 21.7273H322.845V98.0488H295.539Z" fill="url(#paint2_linear)"/>
<path d="M464.197 98.0487H433.982L498.727 0.931763L563.472 98.0487H533.257L498.727 48.4111L464.197 98.0487Z" fill="url(#paint3_linear)"/>
<path d="M617.427 98.0487H589.371V3.08997H617.427V46.253L664.906 3.08997H699.437L651.958 50.5694L699.437 98.0487H664.906L617.427 50.5694V98.0487Z" fill="url(#paint4_linear)"/>
<path d="M766.339 98.0488H738.283V0.931885H766.339V98.0488Z" fill="url(#paint5_linear)"/>
<path d="M303.736 139.613C303.145 139.613 302.583 139.501 302.05 139.276C301.53 139.037 301.073 138.728 300.68 138.349C300.286 137.955 299.977 137.499 299.752 136.979C299.527 136.445 299.415 135.883 299.415 135.293V126.652C299.415 126.061 299.527 125.506 299.752 124.987C299.977 124.453 300.286 123.996 300.68 123.617C301.073 123.223 301.53 122.914 302.05 122.689C302.583 122.45 303.145 122.331 303.736 122.331H318.404C318.994 122.331 319.549 122.45 320.069 122.689C320.603 122.914 321.067 123.223 321.46 123.617C321.854 123.996 322.163 124.453 322.388 124.987C322.612 125.506 322.725 126.061 322.725 126.652V130.551H318.404V126.652H303.736V135.293H318.404C318.994 135.293 319.549 135.405 320.069 135.63C320.603 135.855 321.067 136.164 321.46 136.557C321.854 136.951 322.163 137.414 322.388 137.948C322.612 138.468 322.725 139.023 322.725 139.613V148.233C322.725 148.823 322.612 149.385 322.388 149.919C322.163 150.439 321.854 150.896 321.46 151.289C321.067 151.683 320.603 151.992 320.069 152.216C319.549 152.441 318.994 152.554 318.404 152.554H303.314C302.724 152.554 302.162 152.441 301.628 152.216C301.108 151.992 300.651 151.683 300.258 151.289C299.865 150.896 299.556 150.439 299.331 149.919C299.106 149.385 298.994 148.823 298.994 148.233V144.355H303.314V148.233H318.404V139.613H303.736ZM382.323 148.233C382.323 148.823 382.21 149.385 381.986 149.919C381.761 150.439 381.452 150.896 381.058 151.289C380.665 151.683 380.201 151.992 379.667 152.216C379.147 152.441 378.592 152.554 378.002 152.554H360.741C360.151 152.554 359.589 152.441 359.055 152.216C358.535 151.992 358.079 151.683 357.685 151.289C357.292 150.896 356.983 150.439 356.758 149.919C356.533 149.385 356.421 148.823 356.421 148.233V126.652C356.421 126.061 356.533 125.506 356.758 124.987C356.983 124.453 357.292 123.996 357.685 123.617C358.079 123.223 358.535 122.914 359.055 122.689C359.589 122.45 360.151 122.331 360.741 122.331H378.002C378.592 122.331 379.147 122.45 379.667 122.689C380.201 122.914 380.665 123.223 381.058 123.617C381.452 123.996 381.761 124.453 381.986 124.987C382.21 125.506 382.323 126.061 382.323 126.652V148.233ZM360.741 126.652V148.233H378.002V126.652H360.741ZM420.318 122.331V148.233H435.851V152.554H415.998V122.331H420.318ZM466.933 122.331H471.254V148.233H488.515V122.331H492.835V148.233C492.835 148.823 492.723 149.385 492.498 149.919C492.273 150.439 491.964 150.896 491.571 151.289C491.177 151.683 490.714 151.992 490.18 152.216C489.66 152.441 489.105 152.554 488.515 152.554H471.254C470.664 152.554 470.102 152.441 469.568 152.216C469.048 151.992 468.591 151.683 468.198 151.289C467.804 150.896 467.495 150.439 467.271 149.919C467.046 149.385 466.933 148.823 466.933 148.233V122.331ZM523.918 122.331H548.092V126.652H538.165V152.554H533.845V126.652H523.918V122.331ZM583.495 122.331V152.554H579.174V122.331H583.495ZM643.072 148.233C643.072 148.823 642.959 149.385 642.734 149.919C642.51 150.439 642.2 150.896 641.807 151.289C641.414 151.683 640.95 151.992 640.416 152.216C639.896 152.441 639.341 152.554 638.751 152.554H621.49C620.9 152.554 620.338 152.441 619.804 152.216C619.284 151.992 618.827 151.683 618.434 151.289C618.041 150.896 617.732 150.439 617.507 149.919C617.282 149.385 617.169 148.823 617.169 148.233V126.652C617.169 126.061 617.282 125.506 617.507 124.987C617.732 124.453 618.041 123.996 618.434 123.617C618.827 123.223 619.284 122.914 619.804 122.689C620.338 122.45 620.9 122.331 621.49 122.331H638.751C639.341 122.331 639.896 122.45 640.416 122.689C640.95 122.914 641.414 123.223 641.807 123.617C642.2 123.996 642.51 124.453 642.734 124.987C642.959 125.506 643.072 126.061 643.072 126.652V148.233ZM621.49 126.652V148.233H638.751V126.652H621.49ZM681.067 152.554H676.746V122.331H681.067L699.234 145.767V122.331H703.555V152.554H699.234L681.067 129.117V152.554ZM741.529 139.613C740.939 139.613 740.377 139.501 739.843 139.276C739.323 139.037 738.866 138.728 738.473 138.349C738.08 137.955 737.77 137.499 737.546 136.979C737.321 136.445 737.208 135.883 737.208 135.293V126.652C737.208 126.061 737.321 125.506 737.546 124.987C737.77 124.453 738.08 123.996 738.473 123.617C738.866 123.223 739.323 122.914 739.843 122.689C740.377 122.45 740.939 122.331 741.529 122.331H756.198C756.788 122.331 757.343 122.45 757.863 122.689C758.397 122.914 758.86 123.223 759.254 123.617C759.647 123.996 759.956 124.453 760.181 124.987C760.406 125.506 760.518 126.061 760.518 126.652V130.551H756.198V126.652H741.529V135.293H756.198C756.788 135.293 757.343 135.405 757.863 135.63C758.397 135.855 758.86 136.164 759.254 136.557C759.647 136.951 759.956 137.414 760.181 137.948C760.406 138.468 760.518 139.023 760.518 139.613V148.233C760.518 148.823 760.406 149.385 760.181 149.919C759.956 150.439 759.647 150.896 759.254 151.289C758.86 151.683 758.397 151.992 757.863 152.216C757.343 152.441 756.788 152.554 756.198 152.554H741.107C740.517 152.554 739.955 152.441 739.421 152.216C738.901 151.992 738.445 151.683 738.051 151.289C737.658 150.896 737.349 150.439 737.124 149.919C736.899 149.385 736.787 148.823 736.787 148.233V144.355H741.107V148.233H756.198V139.613H741.529Z" fill="url(#paint6_linear)"/>
<defs>
<linearGradient id="paint0_linear" x1="0.734375" y1="49.5004" x2="122.697" y2="49.5004" gradientUnits="userSpaceOnUse">
<stop stop-color="#B3812A"/>
<stop offset="1" stop-color="#CFAB52"/>
</linearGradient>
<linearGradient id="paint1_linear" x1="155.396" y1="49.8538" x2="256.72" y2="49.8538" gradientUnits="userSpaceOnUse">
<stop stop-color="#D8BA60"/>
<stop offset="1" stop-color="#F0DD82"/>
</linearGradient>
<linearGradient id="paint2_linear" x1="295.539" y1="49.3607" x2="407.015" y2="49.3607" gradientUnits="userSpaceOnUse">
<stop stop-color="#F6E690"/>
<stop offset="1" stop-color="#FCEEA2"/>
</linearGradient>
<linearGradient id="paint3_linear" x1="433.982" y1="49.4902" x2="563.472" y2="49.4902" gradientUnits="userSpaceOnUse">
<stop stop-color="#F8E997"/>
<stop offset="1" stop-color="#E1C76C"/>
</linearGradient>
<linearGradient id="paint4_linear" x1="589.371" y1="50.5694" x2="699.437" y2="50.5694" gradientUnits="userSpaceOnUse">
<stop stop-color="#DABD63"/>
<stop offset="1" stop-color="#C39940"/>
</linearGradient>
<linearGradient id="paint5_linear" x1="738.283" y1="49.4903" x2="766.339" y2="49.4903" gradientUnits="userSpaceOnUse">
<stop stop-color="#B88932"/>
<stop offset="1" stop-color="#B3812A"/>
</linearGradient>
<linearGradient id="paint6_linear" x1="295.537" y1="141.549" x2="766.335" y2="141.549" gradientUnits="userSpaceOnUse">
<stop stop-color="#FFF3AD"/>
<stop offset="1" stop-color="#F9EEA9"/>
</linearGradient>
</defs>
</svg>
